src/icons/pinejs.svg

<svg viewBox="0 0 24 24" xmlns="http://www.w3.org/2000/svg">
  <path
    d="M12.038 3.115C11.904 3.117 11.767 3.198 11.612 3.355C11.145 3.833 4.84802 12.743 4.84802 12.927C4.84802 13.191 5.30602 13.604 5.59802 13.604C5.75202 13.604 6.32202 13.364 6.86602 13.069C7.57802 12.683 7.87802 12.434 7.94102 12.177C8.19502 11.137 8.81402 10.607 9.76802 10.607C10.498 10.607 11.262 11.33 11.368 12.124C11.441 12.666 11.542 12.784 12.627 13.587C13.276 14.067 13.871 14.461 13.95 14.461C14.03 14.461 14.278 14.365 14.503 14.247C15.048 13.963 15.389 13.977 15.985 14.31C16.258 14.462 16.541 14.59 16.612 14.595C16.832 14.609 19.001 13.288 19.075 13.095C19.113 12.995 19.075 12.784 18.992 12.625C18.873 12.405 13.749 5.13 12.572 3.511C12.377 3.244 12.21 3.114 12.038 3.115Z"
    fill="#388E3C"
  />
  <path
    d="M8.39202 13.584L4.92002 15.554L3.38602 17.684C1.77202 19.925 1.56602 20.327 1.85202 20.672C2.00502 20.856 3.34002 20.884 11.92 20.884C17.36 20.884 21.914 20.845 22.038 20.798C22.162 20.75 22.264 20.568 22.264 20.391C22.264 20.05 18.934 15.202 18.616 15.081C18.233 14.933 17.125 15.755 16.775 16.445C16.383 17.218 15.892 17.53 15.101 17.509C14.403 17.491 13.795 16.959 13.527 16.131C13.373 15.653 13.13 15.406 12.07 14.646C11.208 14.028 10.725 13.766 10.571 13.835C10.069 14.058 9.29702 14.052 8.85102 13.821L8.39202 13.584Z"
    fill="#388E3C"
  />
</svg>

<svg
  viewBox="0 0 24 24"
  xml:space="preserve"
  xmlns="http://www.w3.org/2000/svg"
>
  <path
    d="M12.038 3.115c-.134.002-.271.083-.426.24-.467.478-6.764 9.388-6.764 9.572 0 .264.458.677.75.677.154 0 .724-.24 1.268-.535.712-.386 1.012-.635 1.075-.892.254-1.04.873-1.57 1.827-1.57.73 0 1.494.723 1.6 1.517.073.542.174.66 1.259 1.463.649.48 1.244.874 1.323.874.08 0 .328-.096.553-.214.545-.284.886-.27 1.482.063.273.152.556.28.627.285.22.014 2.389-1.307 2.463-1.5.038-.1 0-.311-.083-.47-.119-.22-5.243-7.495-6.42-9.114-.195-.267-.362-.397-.534-.396z"
    fill="#388e3c"
  />
  <path
    d="m8.392 13.584-3.472 1.97-1.534 2.13c-1.614 2.241-1.82 2.643-1.534 2.988.153.184 1.488.212 10.068.212 5.44 0 9.994-.039 10.118-.086.124-.048.226-.23.226-.407 0-.341-3.33-5.189-3.648-5.31-.383-.148-1.491.674-1.841 1.364-.392.773-.883 1.085-1.674 1.064-.698-.018-1.306-.55-1.574-1.378-.154-.478-.397-.725-1.457-1.485-.862-.618-1.345-.88-1.499-.811-.502.223-1.274.217-1.72-.014z"
    fill="#388e3c"
  />
</svg>
